lib/svgs/star-stroke-s.svg

<?xml version="1.0" encoding="UTF-8"?>
<svg width="16px" height="16px" viewBox="0 0 16 16" version="1.1" xmlns="http://www.w3.org/2000/svg" xmlns:xlink="http://www.w3.org/1999/xlink">
    <!-- Generator: sketchtool 51.3 (57544) - http://www.bohemiancoding.com/sketch -->
    <title>app/star-stroke-s</title>
    <desc>Created with sketchtool.</desc>
    <defs></defs>
    <g id="Icons" stroke="none" stroke-width="1" fill="none" fill-rule="evenodd">
        <g id="Web" transform="translate(-580.000000, -665.000000)" fill="#000000" fill-rule="nonzero">
            <g id="app/star-stroke-s" transform="translate(580.000000, 665.000000)">
                <path d="M10.181134,6.65906531 C9.79281228,6.60414909 9.45582931,6.36294194 9.27863293,6.01306913 L7.99976279,3.48795031 L6.72089259,6.01306913 C6.54370174,6.36293101 6.20673384,6.60413474 5.81842584,6.65906046 L3.02398738,7.05433027 L5.02505259,8.95462053 C5.31687106,9.23174282 5.45034882,9.63669252 5.38051076,10.0330225 L4.90074787,12.7556518 L7.45258721,11.4482366 C7.79613811,11.2722209 8.20338741,11.2722209 8.54693831,11.4482366 L11.0990943,12.7558177 L10.6198464,10.0327764 C10.5501168,9.63657936 10.6835528,9.23180045 10.9752229,8.95473929 L12.9758776,7.05429622 L10.181134,6.65906531 Z M14.5509645,6.06510378 C14.7487169,6.09323739 14.9123438,6.22793768 14.9744695,6.41293745 C15.0357202,6.59793722 14.9849696,6.80169273 14.841468,6.93724556 L11.8016823,9.82477654 L12.5191907,13.9015918 C12.5524411,14.0934118 12.4719402,14.2877894 12.3100633,14.4020289 C12.1490614,14.5171209 11.9346839,14.531614 11.7570568,14.4412455 L7.99976276,12.5162248 L4.24246872,14.4412455 C4.16546782,14.4796095 4.08146683,14.4992177 3.99834086,14.4992177 C3.88896457,14.4992177 3.78133831,14.4668215 3.68946224,14.4020289 C3.52758534,14.2877894 3.4470844,14.0934118 3.48033479,13.9015918 L4.19871821,9.82477654 L1.15805756,6.93724556 C1.01543089,6.80169273 0.963805288,6.59793722 1.02593102,6.41293745 C1.08718173,6.22793768 1.25168366,6.09323739 1.44943598,6.06510378 L5.65036022,5.47088793 L7.52900724,1.76151465 C7.70575931,1.41282845 8.29376621,1.41282845 8.47051828,1.76151465 L10.3491653,5.47088793 L14.5509645,6.06510378 Z" id="star-stroke-s"></path>
            </g>
        </g>
    </g>
</svg>

<svg xmlns="http://www.w3.org/2000/svg" viewBox="0 0 16 16">
    <path d="M10.181 6.66a1.2 1.2 0 0 1-.902-.647l-1.28-2.525-1.278 2.525a1.2 1.2 0 0 1-.903.646l-2.794.395 2.001 1.9a1.2 1.2 0 0 1 .356 1.079l-.48 2.723 2.552-1.308a1.2 1.2 0 0 1 1.094 0l2.552 1.308-.48-2.723a1.2 1.2 0 0 1 .356-1.078l2-1.9-2.794-.396zm4.37-.595a.522.522 0 0 1 .423.348.503.503 0 0 1-.133.524l-3.04 2.888.718 4.077a.506.506 0 0 1-.209.5.536.536 0 0 1-.553.04L8 12.515l-3.758 1.925a.549.549 0 0 1-.553-.039.506.506 0 0 1-.209-.5L4.2 9.825l-3.04-2.888a.502.502 0 0 1-.133-.524.52.52 0 0 1 .423-.348l4.201-.594L7.53 1.76c.177-.348.765-.348.942 0l1.878 3.71 4.202.594z"/>
</svg>
